Catalina-light/actions/16/insert-link-symbolic.svg

<?xml version="1.0" encoding="UTF-8" standalone="no"?>
<svg
   xmlns:dc="http://purl.org/dc/elements/1.1/"
   xmlns:cc="http://creativecommons.org/ns#"
   xmlns:rdf="http://www.w3.org/1999/02/22-rdf-syntax-ns#"
   xmlns:svg="http://www.w3.org/2000/svg"
   xmlns="http://www.w3.org/2000/svg"
   xmlns:sodipodi="http://sodipodi.sourceforge.net/DTD/sodipodi-0.dtd"
   xmlns:inkscape="http://www.inkscape.org/namespaces/inkscape"
   viewBox="0 0 16 16"
   id="svg3313"
   version="1.1"
   inkscape:version="0.91 r13725"
   sodipodi:docname="insert-link-symbolic.svg">
  <metadata
     id="metadata3321">
    <rdf:RDF>
      <cc:Work
         rdf:about="">
        <dc:format>image/svg+xml</dc:format>
        <dc:type
           rdf:resource="http://purl.org/dc/dcmitype/StillImage" />
      </cc:Work>
    </rdf:RDF>
  </metadata>
  <sodipodi:namedview
     pagecolor="#ffffff"
     bordercolor="#666666"
     borderopacity="1"
     objecttolerance="10"
     gridtolerance="10"
     guidetolerance="10"
     inkscape:pageopacity="0"
     inkscape:pageshadow="2"
     inkscape:window-width="640"
     inkscape:window-height="480"
     id="namedview3319"
     showgrid="false"
     inkscape:zoom="39.8125"
     inkscape:cx="-0.94191521"
     inkscape:cy="8"
     inkscape:current-layer="svg3313" />
  <defs
     id="defs3051">
    <style
       type="text/css"
       id="current-color-scheme">
      .ColorScheme-Text {
        color:#bebebe;
      }
      </style>
  </defs>
  <path
     style="color:#bebebe;fill:currentColor;fill-opacity:1;stroke:none"
     class="ColorScheme-Text"
     d="M 5.7500001,2 C 3.6725,2 2,3.6714797 2,5.7477125 2,7.8239453 3.6725,9.495425 5.7500001,9.495425 l 1.5,0 0,-1.499085 -1.5,0 C 4.5035,7.99634 3.5,6.9934521 3.5,5.7477125 3.5,4.5019727 4.5035,3.499085 5.7500001,3.499085 l 1.5,0 0,-1.499085 -1.5,0 z m 3,0 0,1.499085 1.4999999,0 c 1.2465,0 2.250001,1.0028877 2.250001,2.2486275 0,1.2457396 -1.003501,2.2486275 -2.250001,2.2486275 l -1.4999999,0 0,1.499085 1.4999999,0 C 12.3275,9.495425 14,7.8239453 14,5.7477125 14,3.6714797 12.3275,2 10.25,2 L 8.7500001,2 Z m -3,2.9981699 0,1.499085 4.4999999,0 0,-1.499085 -4.4999999,0 z m 0,6.0036601 L 8,14 l 2.25,-2.99817 -4.4999999,0 z"
     id="path3317"
     inkscape:connector-curvature="0" />
</svg>

<svg version="1.1" viewBox="0 0 16 16" xmlns="http://www.w3.org/2000/svg">
<defs>
<style id="current-color-scheme" type="text/css">.ColorScheme-Text {
        color:#bebebe;
      }</style>
</defs>
<path class="ColorScheme-Text" d="m5.75 2c-2.0775 0-3.75 1.6715-3.75 3.7477s1.6725 3.7477 3.75 3.7477h1.5v-1.4991h-1.5c-1.2465 0-2.25-1.0029-2.25-2.2486 0-1.2457 1.0035-2.2486 2.25-2.2486h1.5v-1.4991h-1.5zm3 0v1.4991h1.5c1.2465 0 2.25 1.0029 2.25 2.2486 0 1.2457-1.0035 2.2486-2.25 2.2486h-1.5v1.4991h1.5c2.0775 0 3.75-1.6715 3.75-3.7477s-1.6725-3.7477-3.75-3.7477h-1.5zm-3 2.9982v1.4991h4.5v-1.4991h-4.5zm0 6.0037 2.25 2.9982 2.25-2.9982h-4.5z" color="#bebebe" fill="currentColor"/>
</svg>
